X: 19
T: No_27_My_Grandfather_the_Thunderbird.krn
N: Derived from No_27_My_Grandfather_the_Thunderbird.krn
%%abc-version 2.0
%%abcx-abcm2ps-target-version 5.9.1 (29 Sep 2008)
%%abc-creator hum2abc beta
%%abcx-conversion-date 2019/03/15 08:27:55
%%humdrum-veritas 1343569531
%%humdrum-veritas-data 3754722261
%%linebreak <none>
%%barnumbers 0
L: 1/8
M: 2/4
K: F clef=bass
[K:clef=bass][M:2/4]C3//B,//B,B,2 | 
B,A, B,F,/ z/ | 
C3//B,//B,B,2 | 
C3//B,//B, B, z | 
B,3//B,//B,B,2 | 
B,A, B,F, | 
F,3//F,//F,F,2 | 
F,_E, D,C,/ z/ | 
F,3//F,//F,F,2 | 
A,3//G,//F, F, z | 
F,3//F,//F,F,2 | 
F,_E, D,C, | 
C,3//C,//C,C,2 | 
C,3//C,//C, G,, z | 
C,3//C,//C,C,2 | 
C,3//C,//C, A,, z | 
C,3//A,,//A,,A,,2 | 
A,,3//A,,//A,,A,,2 | 
A,,3//A,,//A,,A,,2 | 
F,,4 |]  



